X:1
T:Title
%%score { ( 1 3 5 ) | ( 2 4 6 ) }
L:1/8
M:6/4
K:Bb
V:1 bass nm="Grand Piano"
V:3 bass 
V:5 bass 
V:2 treble 
V:4 treble 
V:6 treble 
V:1
 z6 z2 z2 z[Q:1/4=66] B,,/D,/ |[M:3/4] z[K:treble] B BB BB | z B BB BB | z c cc cc | %4
 A,B BB B[EGB] | z A AA AA | z B BB BB | z c cc cc | z F F F2[K:bass] B,,/D,/ | %9
 z[K:treble] B BB BB | z B BB BB | z d dd dd | A,[GBd] [Bd][Bd] [Bd][GBd] | z c cc cc | z c cc cc | %15
 z c cc [Bc][Bc] |[M:5/8] z cA F2 |[M:1/8] [DF]/[DB]/ |[M:3/4] [Fd]2 [Fd]/[Ec]/ [DB]2 [EA]/[DB]/ | %19
[M:27/32] c/4-c/4-c/4-c/4-c/-<c/B/G/[EG]/[DF]/4-[DF]/4-[DF]/4-[DF]/4-[DF]/-<[DF]/F/-[D-FB-]/4[DB]/ | %20
[M:3/4] (9:8:9[Fd]2- [Fd]/4 [Fd]3/8c3/4B3/8-B3/2-B3/8[EA]3/8[DB]3/4 | %21
[M:7/8] c2- [cd-]/4d/ z/4 z z2 F3/4 z/4 | %22
[M:27/32] [Fd]/4-[Fd]/4-[Fd]/4-[Fd]/4-[Fd]/-<[Fd]/ z/4 z/4 z/ [DB]/[DB]/4-[DB]/4-[DB]/4-[DB]/4-[DB]/-<[DB]/[DB]/[DB]3/4 | %23
 B/4-B/4-B/4-B/4-B/-<B/A/B/c/G/4-G/4-G/4-G/4-G/-<G/[GB]/[GB]3/4 | %24
[M:25/32] (9:8:16[GB]2- [GB]/4-[GB]3/32[GA]3/8-[GA]/64G3/8-G/64F3/4-F/32B3/2-B/16[Ge]-[Ge]/8-[Ge]3/64[^Fe]3/8- [Fe]/64 | %25
[M:5/8] [Dd]2 [EAc]/[EAc]/ [DFB]2 |] %26
V:2
 z12 |[M:3/4] z [DF] [DF][DF] [G,DF][A,DF] | z [DF] [DF][DF] [A,DF][B,DF] | %3
 z [EG] [EG][EG] [B,EG][A,EG] | z [EG] [EG][EG] [EG][K:bass]C,/D,/ | %5
 z[K:treble] [EF] [EF][EF] [F,EF][G,EF] | z [DF] [DF][DF] [B,DF][DF] | %7
 z [=EGB] [EGB][EGB] [DEGB][CEGB] | z [A,C] [A,CD] .[A,CE]3 | z [DF] [DF][DF] [G,DF][A,DF] | %10
 z [DF] [DF][DF] [A,DF][B,DF] | z [^FA] [FA][FA] [A,FA][B,FA] | z2 GG GG,/G,/ | %13
 z [=EGB] [EGB][EGB] [DEGB][CEGB] | z [=EGB] [EGB][A,EGB] [B,EGB][CEGB] | %15
 z [=EGB] [EGB][EGB] [A,EG][G,EG] |[M:5/8] z [EFA][EF] E2 |[M:1/8][K:bass] [B,,B,]/[B,,B,]/ | %18
[M:3/4] [B,,B,]2 [B,,B,]/[F,A,]/ [B,,F,]2 [C,F,]/[B,,F,]/ | %19
[M:27/32] [E,G,E]/4-[E,G,E]/4-[E,G,E]/4-[E,G,E]/4-[E,G,E]/-<[E,G,E]/[E,G,E]/[E,B,E]/[B,,B,]/[B,,B,]/4-[B,,B,]/4-[B,,B,]/4-[B,,B,]/4-[B,,B,]/-<[B,,B,]/[B,,B,]/[B,,B,]3/4 | %20
[M:3/4] (9:8:9[B,,B,]2- [B,,B,]/4 [B,,B,]3/8[F,A,E]3/4[F,D]3/8-[F,D]3/2-[F,D]3/8[C,F,]3/8[B,,F,]3/4 | %21
[M:7/8] z z2 C-C/4 z/4 z/ z2 | %22
[M:27/32] z/4 z/4 z/4 z/4 z/4 z/4 z/4 z/4 z/ A,3/4 z/4 z/4 z/4 z/4 z/4 z/4 z/4 z/4 z/4 z/4 z/4 z/4 z/ | %23
 [F,D]/4-[F,D]/4-[F,D]/4-[F,D]/4-[F,D]/-<[F,D]/[F,C]/[F,D]/[E,G,E]/B,/4-B,/4-B,/4-B,/4-B,/-<B,/-[E,B,E]/[E,E]3/4 | %24
[M:25/32] (9:8:16[=E,_D]2- [E,D]/4-[E,D]3/32[E,D]3/8-[E,D]/64[E,D]3/8-[E,D]/64[F,=D]3/4-[F,D]/32[F,DF]3/2-[F,DF]/16[C,C]-[C,C]/8-[C,C]3/64[E,C]3/8- [E,C]/64 | %25
[M:5/8] z[K:treble] B[K:bass]F,/F,/ B,,2 |] %26
V:3
 x12 |[M:3/4] F,4[K:treble] z2 | B,4 z2 | C4 z2 | x6 | E,4 z2 | F,4 z2 | C4 z2 | F,6[K:bass] | %9
 F,4[K:treble] z2 | B,4 z2 | D4 z2 | x6 | C4 z2 | G,4 z2 | B,4 z2 |[M:5/8] F,-F,- F,3 |[M:1/8] x | %18
[M:3/4] x6 | %19
[M:27/32] z/4 z/4 z/4 z/4 z/4 z/4 z/4 z/4 z/4 z/4 z/4 z/4 z/4 z/4 z/4 z/4 z/4 z/4 z/4 z/4 z/ .D3/4 z/ | %20
[M:3/4] x6 |[M:7/8] =E2 E/[Ec]/- [Ec]/4 z/4 z/ _E2- E/4 z/4 [DB]/- | %22
[M:27/32] [DB]3/4 z/4 z/4 z/4 z/ [Fd]3/4 z/4 z/4 z/4 z/4 z/4 z/4 z/4 z/4 z/4 z/4 z/4 z/4 z/4 z/4 z/ | %23
 x27/4 |[M:25/32] x94/15 |[M:5/8] F z z z2 |] %26
V:4
 x12 |[M:3/4] x6 | x6 | x6 | z G,- G,3[K:bass] z | x[K:treble] x5 | x6 | x6 | x6 | x6 | x6 | x6 | %12
 z G,- G,3 z | x6 | x6 | x6 |[M:5/8] x5 |[M:1/8][K:bass] x |[M:3/4] x6 |[M:27/32] x27/4 | %20
[M:3/4] x6 |[M:7/8] G,2- G,/4 z/4 [C,B,]/- [C,B,]/4 z/4 z/ z z2 | %22
[M:27/32] z/4 z/4 z/4 z/4 z/4 z/4 z/ [B,,B,]3/4 z/4 z/4 z/4 z/4 z/4 z/4 z/4 z/4 z/4 z/4 z/4 z/4 z/4 z/4 z/ | %23
 z/4 z/4 z/4 z/4 z/4 z/4 z/4 z/4 z/4 z/4 z/4 z/4 z/ [E,E]/4-[E,E]/4-[E,E]/4-[E,E]/4-[E,E]/-<[E,E]/ z/4 z/4 z/4 z/ | %24
[M:25/32] x94/15 |[M:5/8] F,2[K:treble][K:bass] z z2 |] %26
V:5
 x12 |[M:3/4] x[K:treble] x5 | x6 | x6 | x6 | x6 | x6 | x6 | x5[K:bass] x | x[K:treble] x5 | x6 | %11
 x6 | x6 | x6 | x6 | x6 |[M:5/8] x5 |[M:1/8] x |[M:3/4] x6 |[M:27/32] x27/4 |[M:3/4] x6 | %21
[M:7/8] z z2 F3 .D | %22
[M:27/32] z/4 z/4 z/4 z/4 z/4 z/4 z/4 z/4 z/ [Ec]3/4 z/4 z/4 z/4 z/4 z/4 z/4 z/4 z/4 z/4 z/4 z/4 z/4 z/ | %23
 x27/4 |[M:25/32] x94/15 |[M:5/8] x5 |] %26
V:6
 x12 |[M:3/4] x6 | x6 | x6 | x5[K:bass] x | x[K:treble] x5 | x6 | x6 | x6 | x6 | x6 | x6 | x6 | %13
 x6 | x6 | x6 |[M:5/8] x5 |[M:1/8][K:bass] x |[M:3/4] x6 |[M:27/32] x27/4 |[M:3/4] x6 | %21
[M:7/8] C,2 .[C,B,] [F,A,]3- [B,,-F,A,B,-]/4[B,,B,]/4[B,,B,]/ | %22
[M:27/32] [B,,B,]/4-[B,,B,]/4-[B,,B,]/4-[B,,B,]/4-[B,,B,]/-<[B,,B,]/ z/ F,/[B,,F,]/[B,,F,]/4-[B,,F,]/4-[B,,F,]/4-[B,,F,]/4-[B,,F,]/-<[B,,F,]/[B,,F,]/[B,,F,]3/4 | %23
 x27/4 |[M:25/32] x94/15 |[M:5/8] x[K:treble] x[K:bass] x3 |] %26

